%
(Header)
(Generated by gcodetools from Inkscape.)
(Using default header. To add your own header create file "header" in the output dir.)
M3
(Header end.)
G21 (All units in mm)

(Start cutting path id: path179)
(Change tool to Cone cutter)

G00 Z5.000000
G00 X103.064450 Y259.998047

G01 Z-1.000000 F100.0(Penetrate)
G03 X97.505069 Y259.737213 Z-1.000000 I0.047291 J-60.384406 F400.000000
G03 X93.269531 Y259.083984 Z-1.000000 I3.315949 J-35.558834
G03 X80.736375 Y254.418635 Z-1.000000 I9.901087 J-45.766052
G03 X70.000000 Y246.382812 Z-1.000000 I22.561343 J-41.333556
G03 X60.715502 Y233.152955 Z-1.000000 I33.106059 J-33.106076
G03 X56.447266 Y217.478516 Z-1.000000 I42.824555 J-20.079714
G03 X56.246698 Y211.874267 Z-1.000000 I48.578965 J-4.544287
G03 X56.677734 Y206.814453 Z-1.000000 I40.156423 J0.872585
G03 X58.459398 Y199.100005 Z-1.000000 I49.781234 J7.434094
G03 X61.365234 Y191.966800 Z-1.000000 I45.314072 J14.301005
G03 X76.346055 Y174.719147 Z-1.000000 I41.663067 J21.057572
G03 X97.708984 Y166.650390 Z-1.000000 I26.662247 J38.276513
G03 X103.182338 Y166.332999 Z-1.000000 I5.571495 J48.727278
G03 X108.347660 Y166.628890 Z-1.000000 I0.087459 J43.706323
G03 X116.513860 Y168.302330 Z-1.000000 I-5.659275 J48.378407
G03 X124.097660 Y171.291000 Z-1.000000 I-13.223282 J44.670649
G03 X141.757498 Y186.671955 Z-1.000000 I-20.850071 J41.767935
G03 X149.839840 Y208.861308 Z-1.000000 I-39.153854 J26.828211
G03 X150.048835 Y214.722333 Z-1.000000 I-46.911810 J4.607040
G03 X149.541020 Y220.130839 Z-1.000000 I-40.548479 J-1.079081
G03 X147.761416 Y227.596981 Z-1.000000 I-51.691464 J-8.375837
G03 X145.054690 Y234.267558 Z-1.000000 I-43.955666 J-13.951488
G03 X131.496904 Y250.650742 Z-1.000000 I-42.128764 J-21.061940
G03 X112.351560 Y259.220683 Z-1.000000 I-27.799561 J-36.434105
G03 X108.264460 Y259.783068 Z-1.000000 I-7.319218 J-38.059427
G03 X103.064450 Y259.998027 Z-1.000000 I-5.146787 J-61.500936
G01 X103.064450 Y259.998047 Z-1.000000
G00 Z5.000000

(End cutting path id: path179)


(Start cutting path id: path179)
(Change tool to Cone cutter)

G00 Z5.000000
G00 X101.488280 Y256.427734

G01 Z-1.000000 F100.0(Penetrate)
G02 X111.252620 Y255.700329 Z-1.000000 I1.674610 J-43.420466 F400.000000
G02 X121.005860 Y252.626953 Z-1.000000 I-8.085849 J-42.672582
G02 X133.461656 Y244.095039 Z-1.000000 I-17.579072 J-39.021904
G02 X142.251950 Y231.699219 Z-1.000000 I-30.438126 J-30.899359
G02 X145.675178 Y205.399281 Z-1.000000 I-39.155911 J-18.469329
G02 X133.126950 Y182.089840 Z-1.000000 I-42.413116 J7.800076
G02 X120.553615 Y173.680495 Z-1.000000 I-29.999164 J31.249358
G02 X105.798830 Y170.080080 Z-1.000000 I-17.579284 J40.007945
G02 X101.039836 Y170.039278 Z-1.000000 I-2.742728 J42.345243
G02 X96.328125 Y170.531250 Z-1.000000 I1.992899 J41.894827
G02 X83.506638 Y174.747309 Z-1.000000 I6.893236 J42.566859
G02 X72.521484 Y182.769530 Z-1.000000 I20.023244 J38.950963
G02 X69.622802 Y185.958991 Z-1.000000 I32.866051 J32.781637
G02 X67.253906 Y189.134770 Z-1.000000 I30.329007 J25.094590
G02 X60.096520 Y217.000367 Z-1.000000 I35.918595 J24.077830
G02 X72.011719 Y243.236328 Z-1.000000 I43.207704 J-3.799350
G02 X85.748332 Y252.818421 Z-1.000000 I30.896755 J-29.655447
G02 X101.488280 Y256.427734 Z-1.000000 I17.414897 J-39.820052
G01 X101.488280 Y256.427734 Z-1.000000
G00 Z5.000000

(End cutting path id: path179)


(Start cutting path id: path179)
(Change tool to Cone cutter)

G00 Z5.000000
G00 X91.429688 Y236.675781

G01 Z-1.000000 F100.0(Penetrate)
G03 X90.879276 Y236.592857 Z-1.000000 I-0.083175 J-1.316082 F400.000000
G03 X90.160156 Y236.205078 Z-1.000000 I1.096683 J-2.894429
G03 X89.099093 Y234.952677 Z-1.000000 I2.017270 J-2.784756
G03 X87.978516 Y231.824219 Z-1.000000 I12.642750 J-6.293403
G03 X87.478531 Y228.097561 Z-1.000000 I19.802516 J-4.553661
G03 X87.664062 Y224.113281 Z-1.000000 I22.869031 J-0.931548
G03 X88.948562 Y219.362271 Z-1.000000 I18.773426 J2.526504
G03 X90.341797 Y217.677734 Z-1.000000 I3.451554 J1.436265
G03 X91.481612 Y217.433487 Z-1.000000 I0.882934 J1.338663
G03 X92.736328 Y218.066406 Z-1.000000 I-0.373276 J2.300144
G03 X94.495769 Y221.181019 Z-1.000000 I-4.473654 J4.581422
G03 X95.168049 Y227.113395 Z-1.000000 I-24.624847 J5.794865
G03 X94.426203 Y233.032686 Z-1.000000 I-25.073850 J-0.136297
G03 X92.638668 Y236.048828 Z-1.000000 I-5.927490 J-1.475194
G03 X91.965037 Y236.525002 Z-1.000000 I-2.166708 J-2.350611
G03 X91.429684 Y236.675781 Z-1.000000 I-0.618948 J-1.171830
G01 X91.429688 Y236.675781 Z-1.000000
G00 Z5.000000

(End cutting path id: path179)


(Start cutting path id: path179)
(Change tool to Cone cutter)

G00 Z5.000000
G00 X117.089840 Y236.667981

G01 Z-1.000000 F100.0(Penetrate)
G03 X116.228765 Y236.481265 Z-1.000000 I-0.128275 J-1.487292 F400.000000
G03 X115.101560 Y235.500012 Z-1.000000 I1.817802 J-3.226244
G03 X113.889101 Y232.998075 Z-1.000000 I5.562770 J-4.240516
G03 X113.140620 Y227.859387 Z-1.000000 I23.648548 J-6.068409
G03 X113.885476 Y220.921423 Z-1.000000 I24.121716 J-0.919270
G03 X115.701170 Y217.919934 Z-1.000000 I5.899634 J1.518942
G03 X116.798485 Y217.425462 Z-1.000000 I1.316927 J1.457681
G03 X117.896480 Y217.671887 Z-1.000000 I0.192538 J1.711488
G03 X119.699372 Y220.012302 Z-1.000000 I-2.199638 J3.559066
G03 X120.742190 Y227.017590 Z-1.000000 I-23.008137 J7.005288
G03 X119.145650 Y235.154322 Z-1.000000 I-21.532610 J0.000000
G03 X117.089840 Y236.667981 Z-1.000000 I-2.266138 J-0.924904
G01 X117.089840 Y236.667981 Z-1.000000
G00 Z5.000000

(End cutting path id: path179)


(Start cutting path id: path179)
(Change tool to Cone cutter)

G00 Z5.000000
G00 X77.070312 Y202.400391

G01 Z-1.000000 F100.0(Penetrate)
G03 X76.962993 Y202.417087 Z-1.000000 I-0.067614 J-0.081347 F400.000000
G03 X76.753906 Y202.300781 Z-1.000000 I0.366437 J-0.904849
G02 X75.390525 Y201.413236 Z-1.000000 I-8.979669 J12.302973
G02 X74.570312 Y201.041016 Z-1.000000 I-2.310454 J4.001436
G03 X73.958937 Y200.776969 Z-1.000000 I1.356044 J-3.979600
G03 X73.906250 Y200.689453 Z-1.000000 I0.046341 J-0.087516
G03 X74.056089 Y200.005540 Z-1.000000 I1.635722 J0.000000
G03 X75.664062 Y196.869140 Z-1.000000 I37.788366 J17.392997
G03 X84.908525 Y186.722480 Z-1.000000 I27.016423 J15.329669
G03 X97.478516 Y181.650390 Z-1.000000 I17.336084 J24.851495
G03 X102.495198 Y181.305332 Z-1.000000 I4.435749 J27.849365
G03 X107.503910 Y181.857420 Z-1.000000 I-0.582765 J28.283332
G03 X118.552792 Y186.480925 Z-1.000000 I-6.036926 J29.940178
G03 X127.017580 Y195.027340 Z-1.000000 I-17.230585 J25.531195
G03 X129.388139 Y199.046106 Z-1.000000 I-38.077051 J25.169145
G03 X129.617190 Y200.001953 Z-1.000000 I-1.784010 J0.932873
G03 X129.558166 Y200.122113 Z-1.000000 I-0.155199 J-0.001659
G03 X128.839840 Y200.615234 Z-1.000000 I-4.050378 J-5.130401
G02 X128.099889 Y201.118586 Z-1.000000 I3.655715 J6.169625
G02 X127.384770 Y201.744141 Z-1.000000 I4.945952 J6.375624
G03 X126.707474 Y202.362966 Z-1.000000 I-8.627916 J-8.763085
G01 X126.660160 Y202.357422 Z-1.000000
G03 X126.624387 Y202.294708 Z-1.000000 I0.251292 J-0.184900
G03 X126.115230 Y201.074219 Z-1.000000 I84.669349 J-36.038358
G02 X125.122774 Y198.974145 Z-1.000000 I-20.124646 J8.225991
G02 X123.759770 Y196.710940 Z-1.000000 I-24.663495 J13.311432
G02 X116.000361 Y189.157883 Z-1.000000 I-21.627892 J14.456545
G02 X105.513670 Y185.212890 Z-1.000000 I-14.852904 J23.571901
G02 X101.925510 Y184.930507 Z-1.000000 I-3.578604 J22.534211
G02 X98.167969 Y185.216890 Z-1.000000 I0.010441 J24.930905
G02 X87.761369 Y189.106508 Z-1.000000 I4.102503 J26.842311
G02 X80.017578 Y196.689540 Z-1.000000 I13.812709 J21.851031
G02 X78.440040 Y199.366108 Z-1.000000 I24.873969 J16.463605
G02 X77.351562 Y201.804778 Z-1.000000 I19.528284 J10.178519
G03 X77.152979 Y202.291019 Z-1.000000 I-8.597331 J-3.227518
G03 X77.070312 Y202.400481 Z-1.000000 I-0.274561 J-0.121405
G01 X77.070312 Y202.400391 Z-1.000000
G00 Z5.000000

(End cutting path id: path179)


(Footer)
M5
G00 X0.0000 Y0.0000
M2
(Using default footer. To add your own footer create file "footer" in the output dir.)
(end)
%